src/assets/outline/Facebook.svg

<?xml version="1.0" encoding="UTF-8"?>
<svg width="24" height="24" viewBox="0 0 24 24" xmlns="http://www.w3.org/2000/svg">
 <path d="m14.75 22.75h-4.5v-7.25h-0.95001c-0.58 0-1.05-0.47-1.05-1.05v-1.9c0-0.58 0.46999-1.05 1.05-1.05h0.95001v-2.5c0-2.07 1.68-3.75 3.75-3.75h2.7c0.58 0 1.05 0.46999 1.05 1.05v2.4c0 0.58-0.47 1.05-1.05 1.05h-1.95v1.75h1.88c0.32 0 0.61 0.14 0.81 0.38s0.28 0.56 0.22 0.87l-0.38 1.9c-0.1 0.49-0.53 0.84-1.03 0.84h-1.5v7.26zm-3-1.5h1.5v-7.25h2.64l0.2-1h-2.83v-3.7c0-0.58 0.47-1.05 1.05-1.05h1.95v-1.5h-2.26c-1.24 0-2.25 1.01-2.25 2.25v4h-2v1h2v7.25z"/>
 <path d="m15 22.75h-6c-5.43 0-7.75-2.32-7.75-7.75v-6c0-5.43 2.32-7.75 7.75-7.75h6c5.43 0 7.75 2.32 7.75 7.75v6c0 5.43-2.32 7.75-7.75 7.75zm-6-20c-4.61 0-6.25 1.64-6.25 6.25v6c0 4.61 1.64 6.25 6.25 6.25h6c4.61 0 6.25-1.64 6.25-6.25v-6c0-4.61-1.64-6.25-6.25-6.25h-6z"/>
</svg>

<svg width="24" height="24" viewBox="0 0 24 24"  xmlns="http://www.w3.org/2000/svg">
<path d="M14.75 22.75H10.25V15.5H9.29999C8.71999 15.5 8.25 15.03 8.25 14.45V12.55C8.25 11.97 8.71999 11.5 9.29999 11.5H10.25V9C10.25 6.93 11.93 5.25 14 5.25H16.7C17.28 5.25 17.75 5.71999 17.75 6.29999V8.70001C17.75 9.28001 17.28 9.75 16.7 9.75H14.75V11.5H16.63C16.95 11.5 17.24 11.64 17.44 11.88C17.64 12.12 17.72 12.44 17.66 12.75L17.28 14.65C17.18 15.14 16.75 15.49 16.25 15.49H14.75V22.75ZM11.75 21.25H13.25V14H15.89L16.09 13H13.26V9.29999C13.26 8.71999 13.73 8.25 14.31 8.25H16.26V6.75H14C12.76 6.75 11.75 7.76 11.75 9V13H9.75V14H11.75V21.25Z" />
<path d="M15 22.75H9C3.57 22.75 1.25 20.43 1.25 15V9C1.25 3.57 3.57 1.25 9 1.25H15C20.43 1.25 22.75 3.57 22.75 9V15C22.75 20.43 20.43 22.75 15 22.75ZM9 2.75C4.39 2.75 2.75 4.39 2.75 9V15C2.75 19.61 4.39 21.25 9 21.25H15C19.61 21.25 21.25 19.61 21.25 15V9C21.25 4.39 19.61 2.75 15 2.75H9Z" />
</svg>
